images/sponsors/Runkit.svg

<?xml version="1.0" encoding="UTF-8"?>
<svg width="102px" height="37px" viewBox="0 0 102 37" version="1.1" xmlns="http://www.w3.org/2000/svg" xmlns:xlink="http://www.w3.org/1999/xlink">
    <!-- Generator: Sketch 43.2 (39069) - http://www.bohemiancoding.com/sketch -->
    <title>Runkit</title>
    <desc>Created with Sketch.</desc>
    <defs></defs>
    <g id="Page-1" stroke="none" stroke-width="1" fill="none" fill-rule="evenodd">
        <g id="Runkit" fill="#616161">
            <path d="M13.5045545,31.1288528 L9.08142707,22.8029658 L7.42275427,22.8029658 L7.42275427,31.1288528 L1.406,31.1288528 L1.406,8.52537057 L9.24404205,8.52537057 C15.5535033,8.52537057 18.7407569,10.7369343 18.7407569,15.5503377 C18.7407569,18.4774074 17.4073141,20.2011261 14.5778134,21.697184 L20.2042917,31.1288528 L13.5045545,31.1288528 Z M7.42275427,12.7208371 L7.42275427,18.7050683 L9.43918003,18.7050683 C11.4881288,18.7050683 12.5613876,17.7293784 12.5613876,15.5503377 C12.5613876,13.598958 11.3905598,12.7208371 9.11395007,12.7208371 L7.42275427,12.7208371 Z M36.6284047,13.7940959 L30.8393114,13.7940959 L30.8393114,25.7625585 C30.1563285,26.9008633 29.3107306,27.4862773 28.4976557,27.4862773 C27.6520578,27.4862773 27.1316899,27.0634783 27.1316899,25.5023745 L27.1316899,13.7940959 L21.3425966,13.7940959 L21.3425966,26.2504034 C21.3425966,29.567749 22.8711774,31.7142668 26.188523,31.7142668 C28.4000867,31.7142668 30.1238055,30.8686689 31.3596794,29.0799041 L31.5873403,31.1288528 L36.6284047,31.1288528 L36.6284047,13.7940959 Z M50.743385,13.208682 C48.6293903,13.208682 47.0032405,14.0217569 45.4746597,15.7454757 L45.0518607,13.7940959 L40.0107963,13.7940959 L40.0107963,31.1288528 L45.7998896,31.1288528 L45.7998896,19.4205742 C46.6129645,18.1196544 47.4585624,17.4366715 48.4017293,17.4366715 C49.1822812,17.4366715 49.7026491,17.8594704 49.7026491,19.4530972 L49.7026491,31.1288528 L55.4917424,31.1288528 L55.4917424,18.4123614 C55.4917424,15.0950158 53.6704547,13.208682 50.743385,13.208682 Z M64.7933193,8.52537057 L58.776565,8.52537057 L58.776565,31.1288528 L64.7933193,31.1288528 L64.7933193,8.52537057 Z M77.9651327,8.52537057 L71.6881945,8.52537057 L64.9884573,19.0953443 L71.6556715,31.1288528 L78.5505466,31.1288528 L71.1678265,18.6074993 L77.9651327,8.52537057 Z M82.6159212,4.45999606 C80.6645414,4.45999606 79.2985756,5.85848489 79.2985756,7.64724967 C79.2985756,9.43601445 80.6645414,10.8345033 82.6159212,10.8345033 C84.5673009,10.8345033 85.9332668,9.43601445 85.9332668,7.64724967 C85.9332668,5.85848489 84.5673009,4.45999606 82.6159212,4.45999606 Z M85.5104678,13.7940959 L79.7213745,13.7940959 L79.7213745,31.1288528 L85.5104678,31.1288528 L85.5104678,13.7940959 Z M98.4871432,26.6732024 C97.8692063,27.0309553 97.2837924,27.1610473 96.7309014,27.1610473 C95.7877346,27.1610473 95.2348436,26.6406794 95.2348436,25.0145296 L95.2348436,17.7619014 L98.5847122,17.7619014 L99.1701261,13.7940959 L95.2348436,13.7940959 L95.2348436,9.43601445 L89.4457503,10.1189974 L89.4457503,13.7940959 L87.2016636,13.7940959 L87.2016636,17.7619014 L89.4457503,17.7619014 L89.4457503,25.0795756 C89.4457503,29.405134 91.3646071,31.7142668 95.4625046,31.7142668 C97.0561314,31.7142668 99.0075112,31.2589448 100.406,30.2832549 L98.4871432,26.6732024 Z" id="RunKit"></path>
        </g>
    </g>
</svg>

<svg width="102" height="37" viewBox="0 0 102 37" xmlns="http://www.w3.org/2000/svg"><title>Runkit</title><path d="M13.505 31.13L9.08 22.802H7.424v8.326H1.406V8.524h7.838c6.31 0 9.497 2.212 9.497 7.025 0 2.927-1.333 4.65-4.162 6.147l5.626 9.432h-6.7zM7.423 12.72v5.985H9.44c2.048 0 3.12-.976 3.12-3.155 0-1.95-1.17-2.83-3.446-2.83h-1.69zm29.205 1.074h-5.79v11.97c-.682 1.137-1.527 1.722-2.34 1.722-.846 0-1.366-.423-1.366-1.984V13.794h-5.79V26.25c0 3.318 1.53 5.464 4.847 5.464 2.21 0 3.934-.845 5.17-2.634l.227 2.05h5.04V13.793zm14.115-.585c-2.114 0-3.74.812-5.268 2.535l-.423-1.95h-5.04v17.334H45.8V19.42c.813-1.3 1.66-1.983 2.602-1.983.78 0 1.3.422 1.3 2.016V31.13h5.79V18.41c0-3.317-1.822-5.203-4.75-5.203zm14.05-4.685h-6.016V31.13h6.016V8.524zm13.172 0h-6.277l-6.7 10.57 6.668 12.034h6.895L71.17 18.606l6.797-10.082zm4.65-4.065c-1.95 0-3.316 1.398-3.316 3.187 0 1.79 1.365 3.188 3.316 3.188 1.95 0 3.317-1.4 3.317-3.188 0-1.79-1.366-3.187-3.317-3.187zm2.895 9.334h-5.79V31.13h5.79V13.793zm12.977 12.88a3.43 3.43 0 0 1-1.756.487c-.942 0-1.495-.52-1.495-2.145v-7.253h3.35l.585-3.968h-3.935V9.436l-5.79.683v3.674h-2.243v3.968h2.244v7.318c0 4.325 1.92 6.634 6.017 6.634 1.593 0 3.545-.455 4.943-1.43l-1.92-3.61z" fill="#616161" fill-rule="evenodd"/></svg>
